X: 30452
T: Old Wheel Of Fortune, The
R: strathspey
M: 4/4
K: Dmajor
|:c>B|A<Fd>F E<A,C>E|F>Ad>D c>DB>D|A<Fd>F E<A,C>E|1 F>A (3GFE D>d:|2 F>d (3Bcd A2||
K: Amaj
A>f|e>ca>c (3efe e>f|e>ca>c f>e (3fga|e>ca>c (3efe c>e|d>ec>d B>cd>f|
e>ca>c (3efe e>f|e>ca>c f>ef>g|a>fe>c a>fe>c|(3ded (3cdc B>d||

